apps/ledger-live-desktop/src/newArch/features/NftEntryPoint/assets/opensea.svg

<svg width="48" height="48" viewBox="0 0 48 48" fill="none" xmlns="http://www.w3.org/2000/svg">
<rect width="48" height="48" rx="14" fill="#2081E2"/>
<rect x="0.5" y="0.5" width="47" height="47" rx="13.5" stroke="white" stroke-opacity="0.1"/>
<path d="M11.3139 25.8332L11.4147 25.6755L17.4915 16.2131C17.5803 16.0746 17.7891 16.0889 17.8563 16.2394C18.8715 18.504 19.7475 21.3206 19.3371 23.074C19.1619 23.7955 18.6819 24.7725 18.1419 25.6755C18.0723 25.8069 17.9955 25.9359 17.9139 26.0601C17.8755 26.1175 17.8107 26.1509 17.7411 26.1509H11.4915C11.3235 26.1509 11.2251 25.9693 11.3139 25.8332Z" fill="white"/>
<path d="M38.4 27.5906V29.0884C38.4 29.1744 38.3472 29.2509 38.2704 29.2843C37.8 29.485 36.1896 30.2207 35.52 31.1476C33.8112 33.515 32.5056 36.9001 29.5872 36.9001H17.412C13.0968 36.9001 9.60001 33.4076 9.60001 29.098V28.9594C9.60001 28.8448 9.69359 28.7516 9.8088 28.7516H16.596C16.7304 28.7516 16.8288 28.8758 16.8168 29.0072C16.7688 29.4467 16.8504 29.8959 17.0592 30.3044C17.4624 31.119 18.2976 31.6278 19.2 31.6278H22.56V29.0168H19.2384C19.068 29.0168 18.9672 28.8209 19.0656 28.6823C19.1016 28.6274 19.1424 28.5701 19.1856 28.5056C19.5 28.0612 19.9488 27.3708 20.3952 26.5849C20.7 26.0546 20.9952 25.4884 21.2328 24.9198C21.2808 24.8171 21.3192 24.712 21.3576 24.6092C21.4224 24.4277 21.4896 24.2581 21.5376 24.0885C21.5856 23.9451 21.624 23.7946 21.6624 23.6537C21.7752 23.1711 21.8232 22.6599 21.8232 22.1296C21.8232 21.9218 21.8136 21.7044 21.7944 21.4965C21.7848 21.2696 21.756 21.0426 21.7272 20.8157C21.708 20.615 21.672 20.4167 21.6336 20.2089C21.5856 19.9055 21.5184 19.6046 21.4416 19.3011L21.4152 19.1865C21.3576 18.9786 21.3096 18.7804 21.2424 18.5726C21.0528 17.9204 20.8344 17.2849 20.604 16.6901C20.52 16.4536 20.424 16.2267 20.328 15.9997C20.1864 15.6581 20.0424 15.3476 19.9104 15.0537C19.8432 14.9199 19.7856 14.7981 19.728 14.6739C19.6632 14.5329 19.596 14.392 19.5288 14.2582C19.4808 14.1555 19.4256 14.0599 19.3872 13.9644L18.9768 13.2095C18.9192 13.1068 19.0152 12.9849 19.128 13.016L21.696 13.7087H21.7032C21.708 13.7087 21.7128 13.7112 21.7128 13.7112L22.0512 13.8043L22.4232 13.9095L22.56 13.9476V12.4283C22.56 11.6949 23.1504 11.1001 23.88 11.1001C24.2448 11.1001 24.576 11.2482 24.8136 11.4895C25.0512 11.7308 25.2 12.0604 25.2 12.4283V14.6835L25.4736 14.7599C25.4952 14.7671 25.5168 14.7766 25.536 14.7909C25.6032 14.8411 25.6992 14.9151 25.8216 15.006C25.9176 15.0824 26.0208 15.1755 26.1456 15.2711C26.3928 15.4694 26.688 15.725 27.012 16.0188C27.0984 16.0929 27.1824 16.1693 27.2592 16.2458C27.6768 16.6328 28.1448 17.0866 28.5912 17.5883C28.716 17.7293 28.8384 17.8726 28.9632 18.0231C29.088 18.176 29.22 18.3265 29.3352 18.477C29.4864 18.6777 29.6496 18.8855 29.7912 19.1029C29.8584 19.2056 29.9352 19.3107 30 19.4134C30.1824 19.6881 30.3432 19.9725 30.4968 20.2567C30.5616 20.3881 30.6288 20.5314 30.6864 20.6724C30.8568 21.0522 30.9912 21.4392 31.0776 21.8262C31.104 21.9098 31.1232 22.0006 31.1328 22.0818V22.101C31.1616 22.2156 31.1712 22.3374 31.1808 22.4616C31.2192 22.8582 31.2 23.2547 31.1136 23.6537C31.0776 23.8233 31.0296 23.9834 30.972 24.153C30.9144 24.3154 30.8568 24.485 30.7824 24.6451C30.6384 24.9771 30.468 25.3092 30.2664 25.6198C30.2016 25.7344 30.1248 25.8563 30.048 25.971C29.964 26.0927 29.8776 26.2074 29.8008 26.3197C29.6952 26.463 29.5824 26.6135 29.4672 26.7473C29.364 26.8883 29.2584 27.0292 29.1432 27.1534C28.9824 27.3421 28.8288 27.5213 28.668 27.6933C28.572 27.8056 28.4688 27.9203 28.3632 28.023C28.26 28.1376 28.1544 28.2404 28.0584 28.3359C27.8976 28.496 27.7632 28.6202 27.6504 28.7229L27.3864 28.9642C27.348 28.9977 27.2976 29.0168 27.2448 29.0168H25.2V31.6278H27.7728C28.3488 31.6278 28.896 31.4248 29.3376 31.0521C29.4888 30.9207 30.1488 30.3522 30.9288 29.4945C30.9552 29.4659 30.9888 29.4444 31.0272 29.4348L38.1336 27.39C38.2656 27.3517 38.4 27.452 38.4 27.5906Z" fill="white"/>
</svg>

<svg xmlns="http://www.w3.org/2000/svg" width="48" height="48" fill="none" viewBox="0 0 48 48"><rect width="48" height="48" fill="#2081e2" rx="14"/><rect width="47" height="47" x=".5" y=".5" stroke="#fff" stroke-opacity=".1" rx="13.5"/><path fill="#fff" d="m11.314 25.833.1-.157 6.077-9.463a.208.208 0 0 1 .365.026c1.015 2.265 1.891 5.082 1.481 6.835-.175.721-.655 1.698-1.195 2.601q-.105.198-.228.385a.2.2 0 0 1-.173.09h-6.25a.206.206 0 0 1-.177-.317"/><path fill="#fff" d="M38.4 27.59v1.498a.22.22 0 0 1-.13.196c-.47.201-2.08.937-2.75 1.864-1.709 2.367-3.014 5.752-5.933 5.752H17.412c-4.315 0-7.812-3.492-7.812-7.802v-.139c0-.114.094-.207.209-.207h6.787c.134 0 .233.124.22.255-.047.44.034.889.243 1.297a2.39 2.39 0 0 0 2.141 1.324h3.36v-2.611h-3.322a.213.213 0 0 1-.172-.335q.054-.081.12-.176a25 25 0 0 0 1.21-1.921c.304-.53.6-1.097.837-1.665.048-.103.086-.208.125-.31.064-.182.132-.352.18-.521.048-.144.086-.294.124-.435.113-.483.161-.994.161-1.524 0-.208-.01-.426-.029-.633a8 8 0 0 0-.067-.681 7 7 0 0 0-.093-.607 10 10 0 0 0-.192-.908l-.027-.114c-.057-.208-.105-.407-.173-.614a23 23 0 0 0-.638-1.883c-.084-.236-.18-.463-.276-.69-.142-.342-.286-.652-.418-.946a13 13 0 0 1-.182-.38 13 13 0 0 0-.2-.416c-.047-.102-.102-.198-.14-.294l-.411-.755a.133.133 0 0 1 .151-.193l2.568.693h.007l.01.002.338.093.372.105.137.039v-1.52c0-.733.59-1.328 1.32-1.328.365 0 .696.148.934.39.237.24.386.57.386.938v2.255l.274.077a.2.2 0 0 1 .062.03q.101.078.286.216c.096.076.199.17.324.265.247.198.542.454.866.748q.13.111.247.227c.418.387.886.84 1.332 1.342q.186.21.372.435c.125.153.257.303.372.454.151.2.315.409.456.626.067.103.144.208.209.31.182.275.343.56.497.844.065.131.132.274.19.415.17.38.304.767.39 1.154.027.084.046.175.056.256v.019c.029.115.038.236.048.36a3.84 3.84 0 0 1-.209 1.692c-.058.162-.115.332-.19.492a7 7 0 0 1-.516.975 6 6 0 0 1-.218.351c-.084.122-.17.236-.247.349a7 7 0 0 1-.334.427 5 5 0 0 1-.324.406c-.16.19-.314.368-.475.54-.096.113-.2.227-.305.33-.103.115-.209.217-.305.313-.16.16-.295.284-.408.387l-.264.241a.22.22 0 0 1-.141.053H25.2v2.61h2.573c.576 0 1.123-.202 1.565-.575.15-.131.81-.7 1.59-1.558a.2.2 0 0 1 .1-.06l7.106-2.044a.21.21 0 0 1 .266.2"/></svg>
